packages/foundations/assets/icons/functional/images/technology/qr_code.svg

<svg xmlns="http://www.w3.org/2000/svg" width="32" height="32" fill="none"><path fill="#1A1C1F" fill-rule="evenodd" d="M5.545 3.039c-1.201.155-2.222 1.115-2.48 2.335-.112.527-.112 6.752 0 7.279a2.97 2.97 0 0 0 2.147 2.25c.476.123 7.081.126 7.563.003a2.96 2.96 0 0 0 2.131-2.131c.12-.474.12-7.051 0-7.524-.297-1.163-1.284-2.062-2.426-2.209-.455-.059-6.482-.062-6.935-.003m14.027-.002c-1.065.143-1.97.867-2.388 1.909l-.144.361-.015 3.542c-.011 2.454.003 3.631.044 3.829.212 1.023 1.119 1.953 2.17 2.225.484.125 7.064.125 7.549 0a2.97 2.97 0 0 0 2.147-2.25c.112-.527.112-6.752 0-7.279a3.09 3.09 0 0 0-1.998-2.24c-.345-.115-.403-.117-3.71-.127-1.848-.005-3.493.008-3.655.03m-7.109 2.08a.93.93 0 0 1 .373.328l.151.227v6.682l-.147.222c-.081.122-.242.27-.358.33-.205.104-.306.107-3.481.107-3.668 0-3.461.022-3.8-.397l-.161-.199V5.61l.161-.199c.339-.419.133-.398 3.785-.396 3.081.001 3.266.006 3.477.102m14.132.087c.411.329.391.135.392 3.793q0 3.264-.057 3.413a1.08 1.08 0 0 1-.515.53c-.139.06-.779.073-3.41.073-3.148 0-3.244-.003-3.462-.108a1.1 1.1 0 0 1-.377-.334l-.153-.224V5.672l.143-.215c.083-.125.238-.263.373-.33.23-.114.244-.115 3.546-.101l3.315.014zM7.71 7.064c-.297.109-.459.243-.586.486-.1.19-.112.32-.128 1.357-.019 1.271.008 1.441.272 1.742.281.32.373.338 1.758.338 1.396 0 1.463-.015 1.773-.397l.161-.2.016-1.235c.01-.679.002-1.314-.015-1.409-.038-.204-.293-.513-.529-.642-.232-.127-2.399-.158-2.722-.04m13.977-.001c-.246.09-.478.302-.591.539-.12.254-.121 2.497-.001 2.784.111.265.225.384.478.5.188.086.365.098 1.445.099 1.187.002 1.24-.003 1.466-.122.177-.094.272-.195.385-.413l.151-.289-.017-1.236-.016-1.236-.16-.226c-.293-.415-.418-.448-1.76-.463-.904-.009-1.221.005-1.38.063M5.268 17.096a2.9 2.9 0 0 0-1.272.702c-.398.369-.622.703-.829 1.242l-.154.4-.015 3.413c-.018 3.778-.013 3.843.321 4.518.234.473.862 1.092 1.335 1.317.668.317.75.323 4.359.323 2.641 0 3.35-.014 3.64-.076a2.97 2.97 0 0 0 2.25-2.147c.125-.485.125-7.065 0-7.549-.137-.53-.377-.938-.797-1.359-.427-.426-.947-.716-1.46-.813-.177-.033-1.589-.052-3.68-.049-2.698.003-3.455.019-3.698.078m13.292-.034c-.54.17-1.128.674-1.376 1.178l-.144.293v3.947l.18.332c.224.413.657.829 1.06 1.018l.307.143 1.693.016 1.693.017v1.483c0 1.554.034 1.898.224 2.296.181.378.755.92 1.136 1.073.317.127.339.129 2.188.129h1.868l.35-.173a2.45 2.45 0 0 0 1.075-1.075l.173-.35v-1.948c0-1.905-.003-1.954-.122-2.249a1.81 1.81 0 0 0-.907-.963l-.355-.176-1.799-.016-1.799-.016-.016-1.717-.016-1.717-.143-.307c-.189-.403-.605-.836-1.018-1.06l-.332-.18-1.893-.01c-1.042-.006-1.954.009-2.027.032m-6.016 2.085c.109.073.253.229.32.346l.123.214v3.253c0 1.789-.018 3.317-.04 3.396-.058.204-.3.473-.503.558-.14.059-.802.073-3.442.073-3.663-.001-3.469.019-3.798-.392l-.164-.205-.015-3.309c-.014-3.272-.013-3.312.098-3.541a.92.92 0 0 1 .603-.504c.092-.022 1.619-.036 3.394-.032l3.227.009zm9.327-.008c.094.116.102.224.102 1.324 0 .756-.021 1.237-.057 1.305-.115.215-.355.259-1.426.259-1.109 0-1.305-.037-1.425-.27-.108-.208-.111-2.305-.004-2.498.142-.256.238-.273 1.517-.259 1.181.013 1.193.014 1.293.139M7.6 21.102a1.12 1.12 0 0 0-.536.578c-.071.184-.082.424-.068 1.418.02 1.359.038 1.428.464 1.728l.229.161 1.236.016 1.236.017.289-.151c.218-.113.319-.208.413-.385.119-.225.124-.28.124-1.454 0-1.505-.052-1.683-.56-1.916-.188-.087-.362-.098-1.44-.097-1.013 0-1.255.015-1.387.085m19.121 2.979a.56.56 0 0 1 .211.183c.085.16.069 2.512-.018 2.627-.129.17-.351.202-1.399.202-1.104 0-1.341-.042-1.457-.258-.089-.166-.074-2.399.016-2.562.137-.247.253-.269 1.409-.271.864-.002 1.114.014 1.238.079"/></svg>

<svg width="32" height="32" viewBox="0 0 32 32" fill="none" xmlns="http://www.w3.org/2000/svg"><path d="M5.545 3.039 C 4.344 3.194,3.323 4.154,3.065 5.374 C 2.953 5.901,2.953 12.126,3.065 12.653 C 3.296 13.743,4.137 14.624,5.212 14.903 C 5.688 15.026,12.293 15.029,12.775 14.906 C 13.819 14.640,14.640 13.819,14.906 12.775 C 15.026 12.301,15.026 5.724,14.906 5.251 C 14.609 4.088,13.622 3.189,12.480 3.042 C 12.025 2.983,5.998 2.980,5.545 3.039 M19.572 3.037 C 18.507 3.180,17.602 3.904,17.184 4.946 L 17.040 5.307 17.025 8.849 C 17.014 11.303,17.028 12.480,17.069 12.678 C 17.281 13.701,18.188 14.631,19.239 14.903 C 19.723 15.028,26.303 15.028,26.788 14.903 C 27.863 14.624,28.704 13.743,28.935 12.653 C 29.047 12.126,29.047 5.901,28.935 5.374 C 28.719 4.352,27.929 3.466,26.937 3.134 C 26.592 3.019,26.534 3.017,23.227 3.007 C 21.379 3.002,19.734 3.015,19.572 3.037 M12.463 5.117 C 12.604 5.181,12.742 5.302,12.836 5.445 L 12.987 5.672 12.987 9.013 L 12.987 12.354 12.840 12.576 C 12.759 12.698,12.598 12.846,12.482 12.906 C 12.277 13.010,12.176 13.013,9.001 13.013 C 5.333 13.013,5.540 13.035,5.201 12.616 L 5.040 12.417 5.040 9.013 L 5.040 5.610 5.201 5.411 C 5.540 4.992,5.334 5.013,8.986 5.015 C 12.067 5.016,12.252 5.021,12.463 5.117 M26.595 5.204 C 27.006 5.533,26.986 5.339,26.987 8.997 C 26.987 11.173,26.968 12.310,26.930 12.410 C 26.853 12.614,26.623 12.851,26.415 12.940 C 26.276 13.000,25.636 13.013,23.005 13.013 C 19.857 13.013,19.761 13.010,19.543 12.905 C 19.411 12.841,19.255 12.703,19.166 12.571 L 19.013 12.347 19.013 9.009 L 19.013 5.672 19.156 5.457 C 19.239 5.332,19.394 5.194,19.529 5.127 C 19.759 5.013,19.773 5.012,23.075 5.026 L 26.390 5.040 26.595 5.204 M7.710 7.064 C 7.413 7.173,7.251 7.307,7.124 7.550 C 7.024 7.740,7.012 7.870,6.996 8.907 C 6.977 10.178,7.004 10.348,7.268 10.649 C 7.549 10.969,7.641 10.987,9.026 10.987 C 10.422 10.987,10.489 10.972,10.799 10.590 L 10.960 10.390 10.976 9.155 C 10.986 8.476,10.978 7.841,10.961 7.746 C 10.923 7.542,10.668 7.233,10.432 7.104 C 10.200 6.977,8.033 6.946,7.710 7.064 M21.687 7.063 C 21.441 7.153,21.209 7.365,21.096 7.602 C 20.976 7.856,20.975 10.099,21.095 10.386 C 21.206 10.651,21.320 10.770,21.573 10.886 C 21.761 10.972,21.938 10.984,23.018 10.985 C 24.205 10.987,24.258 10.982,24.484 10.863 C 24.661 10.769,24.756 10.668,24.869 10.450 L 25.020 10.161 25.003 8.925 L 24.987 7.689 24.827 7.463 C 24.534 7.048,24.409 7.015,23.067 7.000 C 22.163 6.991,21.846 7.005,21.687 7.063 M5.268 17.096 C 4.817 17.206,4.372 17.451,3.996 17.798 C 3.598 18.167,3.374 18.501,3.167 19.040 L 3.013 19.440 2.998 22.853 C 2.980 26.631,2.985 26.696,3.319 27.371 C 3.553 27.844,4.181 28.463,4.654 28.688 C 5.322 29.005,5.404 29.011,9.013 29.011 C 11.654 29.011,12.363 28.997,12.653 28.935 C 13.743 28.704,14.624 27.863,14.903 26.788 C 15.028 26.303,15.028 19.723,14.903 19.239 C 14.766 18.709,14.526 18.301,14.106 17.880 C 13.679 17.454,13.159 17.164,12.646 17.067 C 12.469 17.034,11.057 17.015,8.966 17.018 C 6.268 17.021,5.511 17.037,5.268 17.096 M18.560 17.062 C 18.020 17.232,17.432 17.736,17.184 18.240 L 17.040 18.533 17.040 20.507 L 17.040 22.480 17.220 22.812 C 17.444 23.225,17.877 23.641,18.280 23.830 L 18.587 23.973 20.280 23.989 L 21.973 24.006 21.973 25.489 C 21.973 27.043,22.007 27.387,22.197 27.785 C 22.378 28.163,22.952 28.705,23.333 28.858 C 23.650 28.985,23.672 28.987,25.521 28.987 L 27.389 28.987 27.739 28.814 C 28.187 28.594,28.594 28.187,28.814 27.739 L 28.987 27.389 28.987 25.441 C 28.987 23.536,28.984 23.487,28.865 23.192 C 28.693 22.767,28.384 22.438,27.958 22.229 L 27.603 22.053 25.804 22.037 L 24.005 22.021 23.989 20.304 L 23.973 18.587 23.830 18.280 C 23.641 17.877,23.225 17.444,22.812 17.220 L 22.480 17.040 20.587 17.030 C 19.545 17.024,18.633 17.039,18.560 17.062 M12.544 19.147 C 12.653 19.220,12.797 19.376,12.864 19.493 L 12.987 19.707 12.987 22.960 C 12.987 24.749,12.969 26.277,12.947 26.356 C 12.889 26.560,12.647 26.829,12.444 26.914 C 12.304 26.973,11.642 26.987,9.002 26.987 C 5.339 26.986,5.533 27.006,5.204 26.595 L 5.040 26.390 5.025 23.081 C 5.011 19.809,5.012 19.769,5.123 19.540 C 5.247 19.284,5.468 19.099,5.726 19.036 C 5.818 19.014,7.345 19.000,9.120 19.004 L 12.347 19.013 12.544 19.147 M21.871 19.139 C 21.965 19.255,21.973 19.363,21.973 20.463 C 21.973 21.219,21.952 21.700,21.916 21.768 C 21.801 21.983,21.561 22.027,20.490 22.027 C 19.381 22.027,19.185 21.990,19.065 21.757 C 18.957 21.549,18.954 19.452,19.061 19.259 C 19.203 19.003,19.299 18.986,20.578 19.000 C 21.759 19.013,21.771 19.014,21.871 19.139 M7.600 21.102 C 7.345 21.236,7.155 21.441,7.064 21.680 C 6.993 21.864,6.982 22.104,6.996 23.098 C 7.016 24.457,7.034 24.526,7.460 24.826 L 7.689 24.987 8.925 25.003 L 10.161 25.020 10.450 24.869 C 10.668 24.756,10.769 24.661,10.863 24.484 C 10.982 24.259,10.987 24.204,10.987 23.030 C 10.987 21.525,10.935 21.347,10.427 21.114 C 10.239 21.027,10.065 21.016,8.987 21.017 C 7.974 21.017,7.732 21.032,7.600 21.102 M26.721 24.081 C 26.807 24.125,26.902 24.207,26.932 24.264 C 27.017 24.424,27.001 26.776,26.914 26.891 C 26.785 27.061,26.563 27.093,25.515 27.093 C 24.411 27.093,24.174 27.051,24.058 26.835 C 23.969 26.669,23.984 24.436,24.074 24.273 C 24.211 24.026,24.327 24.004,25.483 24.002 C 26.347 24.000,26.597 24.016,26.721 24.081 " fill="#1A1C1F" stroke="none" fill-rule="evenodd"></path></svg>
